X:644
T:Polska # 644
S:efter Anders Gustaf Andersson
B:Sörmlands musikarkiv - Anders Gustaf Andersson, Nora (pdf), nr 644
O:Mörkö, Södermanland
R:Slängpolska
M:3/4
L:1/16
K:C
Q:120
G2G2 c2c2 e2c2 | BdBG z4 z4| G2G2 c2c2 e2c2 | BdBG AcA^F G4 :|
c3e g2ag ^f2d2 | B2d2 d2ed B2G2 | c3e g2ag ^f2d2 | B2d2 d2ed B2G2 | G2G2 c2c2 e2g2 | g2{ag}f2 d2Bd c4 :|

